X:1
L:1/8
Q:1/8=150
M:2/2
K:G
 EFGA BAFA | BdAd BdAF | D2 FD ADFD | BdAd BdAF | EFG>A BAFA | BdAd BdAF | D2 FD A2 FA | 
 Beed Be e2 :| e2 ge bege | bege bege | defg adfd | adfd adfd | e2 ge bege | bege bege | 
 defg afdf | egfd ecBG :|
